X:104
T:LVSGREN2- Amongst the Leaves So Green, O
S:O'Keeffe/ Arnold's tune, from Calliope, 1788
Q:1/4=100
L:1/8
M:C
K:F
A B|c c c c c2 c c|d c B cd2d d|c B A B c2c c|B A G AB2B B|\
A A A A A2A A|B G G AB2A G|F2c2 {e/}d2c B|A2G2F4|:\
"Chorus"A B c2A B c2|A Bc2A Bc2|f2c2f2c2|B G G A {c/}B2A G|\
F2c2{e/}d2c B|A2G2F4:|]

